X:1
T:Wild Mountain Thyme
C: (Arr. YT - Fiddlehed)
M:3/4
L:1/8
K:Dmaj
| "G"D2B,2 |: "D"(A,2 (A,)G, A,2) | "G"(A,B,D2) ((3EFE | "D"D4 {E}D2) | D2 (EFA2) | "G"(B2 Bc/B A2) | "G"(B2 Bc/B A2) |
"D"F2(A2AB)| A2(d2c2) | "G"B5 | A4F2 | "D"(EF/ED3 C | D2)E2F2 | "G"(F(G)G) ((3FGF |
"A"E4) D2 | "Bm"B,2 (D3 E | D2)D2B,2 | "D"(A,3 (3B,/A,/G,/ A,2) | "G"B,2D3E | "D"D3E2D | D5:| 
